brandFactory_export/2.Regular/Cuidar_2Regular.svg

<?xml version="1.0" encoding="UTF-8"?>
<svg width="24px" height="24px" viewBox="0 0 24 24" version="1.1" xmlns="http://www.w3.org/2000/svg" xmlns:xlink="http://www.w3.org/1999/xlink">
    <title>2.Regular/Cuidar_2Regular</title>
    <g id="Symbols" stroke="none" stroke-width="1" fill="none" fill-rule="evenodd">
        <g id="2.Regular/Cuidar_2Regular" fill="#5CB615" fill-rule="nonzero">
            <path d="M21.7378151,17.9731092 C22.2588235,17.6436975 22.2689076,17.4521008 22.0571429,17.0352941 C21.8420168,16.6588235 21.4386555,16.5142857 21.0722689,16.6386555 L16.6453782,18.1411765 C16.5176471,18.1882353 16.3932773,18.2386555 16.2689076,18.292437 C15.9294118,18.5042017 15.5394958,18.6184874 15.1394958,18.6184874 L9.3210084,18.6184874 C8.9210084,18.6184874 8.59831933,18.2957983 8.59831933,17.8957983 L8.59831933,17.892437 C8.59831933,17.4991597 8.91764706,17.1663866 9.3210084,17.1663866 L15.1394958,17.1663866 C15.5159664,17.1663866 15.9092437,16.7731092 15.9092437,16.3932773 C15.9092437,16.0470588 15.6941176,15.687395 15.3008403,15.687395 L14.9714286,15.687395 C14.0067227,15.707563 11.9966387,15.7546218 10.097479,14.5647059 C10.087395,14.5546218 9.11260504,13.9966387 5.99327731,13.9193277 L5.99327731,19.1663866 L11.5294118,21.8352941 C11.9327731,22.0672269 12.4168067,22.1747899 13.0016807,22.1747899 C13.502521,22.1747899 13.9159664,22.097479 14.2521008,21.9428571 C14.2823529,21.9226891 19.9731092,19.092437 21.7378151,17.9731092 Z M4.55462185,21.2369748 L4.55462185,13.307563 C4.55462185,13.1630252 4.43697479,13.0453782 4.29243697,13.0453782 L1.71428571,13.0453782 C1.5697479,13.0453782 1.4487395,13.1596639 1.44537815,13.307563 L1.44537815,21.2369748 C1.4487395,21.3848739 1.56638655,21.5058824 1.71428571,21.5092437 L4.28571429,21.5092437 C4.43361345,21.5058824 4.55462185,21.3848739 4.55462185,21.2369748 L4.55462185,21.2369748 Z M23.3277311,16.3596639 C23.6739496,17.0184874 24.010084,18.2521008 22.507563,19.2 C20.6890756,20.3495798 15.112605,23.1327731 14.8705882,23.2571429 C14.3327731,23.4991597 13.7042017,23.6268908 13.0016807,23.6268908 C12.1546218,23.6268908 11.4319328,23.4521008 10.8537815,23.112605 L6,20.7731092 L6,21.2369748 C6,22.1848739 5.24033613,22.9579832 4.28571429,22.9579832 L1.71428571,22.9579832 C0.769747899,22.9579832 0,22.1848739 0,21.2369748 L0,13.307563 C0,12.3630252 0.766386555,11.5966387 1.71428571,11.5966387 L4.28571429,11.5966387 C4.93109244,11.5966387 5.4789916,11.9563025 5.77815126,12.4773109 C9.49579832,12.5378151 10.6890756,13.2201681 10.9008403,13.3647059 C12.3932773,14.302521 14.0504202,14.2655462 14.9478992,14.2453782 L15.3210084,14.2453782 C15.8689076,14.2521008 16.389916,14.4840336 16.7663866,14.8840336 C17.1327731,15.2705882 17.3546218,15.8117647 17.3546218,16.4 L20.6016807,15.2705882 C21.6436975,14.9142857 22.7596639,15.3378151 23.2806723,16.2756303 C23.2773109,16.2722689 23.3277311,16.3596639 23.3277311,16.3596639 Z M2.97478992,13.8352941 C3.48571429,13.8352941 3.83193277,14.1815126 3.83193277,14.6957983 C3.83193277,15.1966387 3.48571429,15.5462185 2.97478992,15.5462185 C2.47394958,15.5462185 2.11764706,15.1966387 2.11764706,14.6957983 C2.11764706,14.1848739 2.47394958,13.8352941 2.97478992,13.8352941 Z M15.6537815,1.4487395 C12.205042,1.4487395 10.5310924,3.13277311 10.5310924,6.59159664 C10.5310924,10.0504202 12.205042,11.7310924 15.6537815,11.7310924 C19.1058824,11.7310924 20.7831933,10.0504202 20.7831933,6.59159664 C20.7798319,3.13277311 19.102521,1.4487395 15.6537815,1.4487395 L15.6537815,1.4487395 Z M15.6537815,13.1831933 C11.4184874,13.1831933 9.08571066,10.8436975 9.08571066,6.59495798 C9.08235294,2.3394958 11.4151261,0 15.6537815,0 C19.892437,0 22.2252101,2.34285714 22.2252101,6.59159664 C22.2252101,10.8436975 19.8890756,13.1831933 15.6537815,13.1831933 Z M12.8739496,6.25210084 L12.8739496,6.93109244 L14.5915966,6.93109244 C14.9915966,6.93109244 15.3142857,7.25378151 15.3142857,7.65378151 L15.3176471,9.37815126 L15.9932773,9.37815126 L15.9932773,7.65378151 C15.9932773,7.25378151 16.3159664,6.92773109 16.7159664,6.92773109 L18.4336134,6.92773109 L18.4336134,6.2487395 L16.7159664,6.2487395 C16.3159664,6.2487395 15.9932773,5.92268908 15.9932773,5.52268908 L15.9932773,3.80168067 L15.3142857,3.80168067 L15.3176471,5.52605042 C15.3176471,5.92605042 14.994958,6.2487395 14.5983193,6.25210084 L12.8739496,6.25210084 Z M13.8722689,8.37983193 L12.5243697,8.37983193 C11.9327731,8.37983193 11.4319328,7.91260504 11.4319328,7.36134454 L11.4319328,5.82521008 C11.4319328,5.27058824 11.9327731,4.80336134 12.5243697,4.80336134 L13.8689076,4.80336134 L13.8689076,3.4487395 C13.8689076,2.85378151 14.3361345,2.35294118 14.8840336,2.35294118 L16.4168067,2.35294118 C16.9680672,2.35294118 17.4319328,2.85378151 17.4319328,3.45210084 L17.4319328,4.8 L18.7798319,4.8 C19.3714286,4.8 19.8722689,5.26722689 19.8722689,5.81848739 L19.8722689,7.35462185 C19.8722689,7.90588235 19.3714286,8.37310924 18.7798319,8.37310924 L17.4319328,8.37310924 L17.4319328,9.72773109 C17.4319328,10.3226891 16.9680672,10.8235294 16.4168067,10.8235294 L14.8907563,10.8235294 C14.3394958,10.8235294 13.8756303,10.3226891 13.8756303,9.72773109 L13.8722689,8.37983193 Z" id="Cuidar_2Regular"></path>
        </g>
    </g>
</svg>

<svg width="24" height="24" viewBox="0 0 24 24" xmlns="http://www.w3.org/2000/svg"><path d="M21.738 17.973c.52-.33.53-.52.32-.938-.216-.376-.62-.52-.986-.396l-4.427 1.502a7.326 7.326 0 00-.376.151c-.34.212-.73.326-1.13.326H9.321a.722.722 0 01-.723-.722v-.004c0-.393.32-.726.723-.726h5.818c.377 0 .77-.393.77-.773 0-.346-.215-.706-.608-.706h-.33c-.964.02-2.974.068-4.874-1.122-.01-.01-.984-.568-4.104-.646v5.247l5.536 2.67c.404.231.888.339 1.473.339.5 0 .914-.078 1.25-.232.03-.02 5.721-2.85 7.486-3.97zM4.555 21.237v-7.93a.263.263 0 00-.263-.262H1.714a.268.268 0 00-.269.263v7.929a.277.277 0 00.27.272h2.57a.275.275 0 00.27-.272zm18.773-4.877c.346.658.682 1.892-.82 2.84-1.819 1.15-7.395 3.933-7.637 4.057-.538.242-1.167.37-1.87.37-.846 0-1.57-.175-2.147-.514L6 20.773v.464c0 .948-.76 1.721-1.714 1.721H1.714A1.72 1.72 0 010 21.237v-7.93c0-.944.766-1.71 1.714-1.71h2.572c.645 0 1.193.36 1.492.88 3.718.06 4.911.743 5.123.888 1.492.938 3.15.9 4.047.88h.373a2.02 2.02 0 011.445.639c.367.387.589.928.589 1.516l3.247-1.13c1.042-.356 2.158.068 2.679 1.006-.004-.004.047.084.047.084zM2.975 13.835c.51 0 .857.347.857.86 0 .502-.346.851-.857.851-.501 0-.857-.35-.857-.85 0-.511.356-.86.857-.86zM15.654 1.45c-3.449 0-5.123 1.684-5.123 5.143 0 3.458 1.674 5.14 5.123 5.14 3.452 0 5.13-1.682 5.13-5.14-.004-3.46-1.681-5.143-5.13-5.143zm0 11.734c-4.236 0-6.568-2.34-6.568-6.588C9.082 2.339 11.416 0 15.654 0c4.238 0 6.571 2.343 6.571 6.592 0 4.252-2.336 6.591-6.571 6.591zm-2.78-6.93v.678h1.718c.4 0 .722.323.722.723l.004 1.724h.675V7.654c0-.4.323-.726.723-.726h1.718v-.68h-1.718a.724.724 0 01-.723-.725V3.802h-.679l.004 1.724c0 .4-.323.723-.72.726h-1.724zm.998 2.127h-1.348c-.591 0-1.092-.467-1.092-1.019V5.825c0-.554.5-1.022 1.092-1.022h1.345V3.45c0-.595.467-1.096 1.015-1.096h1.533c.551 0 1.015.5 1.015 1.1V4.8h1.348c.591 0 1.092.467 1.092 1.018v1.537c0 .55-.5 1.018-1.092 1.018h-1.348v1.355c0 .595-.464 1.096-1.015 1.096H14.89c-.552 0-1.015-.501-1.015-1.096l-.004-1.348z" fill="#5CB615" fill-rule="nonzero"/></svg>
